!!!OTL: Allons enfants de la patrie
!!!ARE: Europa, Mitteleuropa, France
!!!SCT: B0731
!!!YEM: Copyright 1995, estate of Helmut Schaffrath.
**kern
*ICvox
*Ivox
*M4/4
*k[]
*C:
{8G
8G
8G
=1
4c
4c
4d
4d
=2
4.g
8e
8c}
{8c
8e
16c
16B
=3
4A
4.f
8f
8d
8B
=4
2c
4r}
{8.c
16d
=5
4e
4e
4e
8f
8e
=6
8e
8d
4d
4r}
{8.d
16e
=7
4f
4f
4f
8.g
16f
=8
2e
4r}
{8.g
16g
=9
4g
8e
8c
4g
8.e
16c
=10
2G
8r}
{8G
8G
8G
=11
4.d
8e
4.f
8d
=12
4c
4c}
{2B-
=13
4A
8.c
16c
4c
8B
8c
=14
2d
4r}
{8.d
16d
=15
4e-
8.e-
16e-
8.d
16e-
8.f
16e-
=16
2d
4r}
{8e-
8d
=17
4c
4c
4c
8d
8c
=18
8c
8B
4B
4r}
{4g
=19
2.g
8.e-
16c
=20
2d
4r}
{4g
=21
[2g
8.g]
16g
8.e-
16c
=22
2d
4r}
{4G
=23
2.c
4c
=24
2.e
4r}
=25
{2f
4g
4a
=26
2.d
4a
=27
[2g
8.g]
16e
8.f
16d
=28
2c
4r}
{4G
=29
2.c
4c
=30
2.e
4r}
=31
{2f
4g
4a
=32
2.d
4a
=33
[2g
8.g]
16e
8.f
16d
=34
2c
8r}
==
!!!AGN: National - Hymne
!!!ONB: ESAC (Essen Associative Code) Database: BOEHME
!!!AMT: simple quadruple
!!!AIN: vox
!!!EED: Helmut Schaffrath
!!!EEV: 1.0
*-
